public/pieces/icpieces/bQ.svg

<svg height="368" width="368" xmlns="http://www.w3.org/2000/svg"><path d="m110 175c-4.511-9.536-11.486-18.228-17.3333-27-2.4372-3.656-6.0229-7.712-7.2292-12-1.0655-3.788 1.593-7.343 2.2338-11 1.3834-7.895-.1468-16.066-5.7762-21.957-14.8-15.4865-43.0696-3.9501-41.6821 17.957.412 6.506 3.7977 13.169 8.8804 17.236 3.7152 2.973 8.6934 4.12 10.6574 8.808 2.4959 5.957 3.6294 12.746 5.3896 18.956 3.8653 13.637 7.4879 27.344 11.284 41 2.778 9.994 5.4534 20.022 8.2855 30 1.7214 6.065 4.4329 12.722 5.1273 18.985.5521 4.98-5.0501 8.517-6.7037 13.015-2.3192 6.309 1.7148 12.222.2299 17.961-1.3616 5.262-7.8479 8.353-9.5632 14.039-1.4246 4.723-.8002 10.126-.8002 15v25h222v-25c0-4.874.624-10.277-.8-15-1.716-5.686-8.202-8.777-9.563-14.039-1.485-5.739 2.549-11.652.23-17.961-1.654-4.498-7.256-8.035-6.704-13.015.694-6.263 3.406-12.92 5.127-18.985 2.832-9.978 5.508-20.006 8.286-30 3.796-13.656 7.418-27.363 11.284-41 1.76-6.21 2.893-12.999 5.389-18.956 1.965-4.689 6.943-5.831 10.658-8.808 4.952-3.969 8.47-10.884 8.88-17.236 1.415-21.9165-26.895-33.4301-41.682-17.957-5.629 5.891-7.16 14.062-5.776 21.957.64 3.657 3.299 7.213 2.233 11-1.206 4.288-4.792 8.344-7.229 12-5.847 8.772-12.822 17.464-17.333 27-6.705-12.722-10.693-27.509-15.681-41-2.173-5.875-6.669-13.559-6.958-19.83-.206-4.478 6.011-8.976 7.708-13.17 5.179-12.7918-1.805-27.8182-15.069-31.9452-9.231-2.8723-20.341.1518-26.211 7.9853-7.351 9.8113-6.912 28.0349 5.211 33.9599-1.992 8.608-5.862 16.745-8.95 25-4.49 12.004-8.618 24.388-14.05 36-5.432-11.612-9.56-23.996-14.05-36-3.088-8.255-6.958-16.392-8.95-25 12.123-5.925 12.562-24.1486 5.211-33.9599-5.87-7.8335-16.98-10.8576-26.211-7.9853-13.264 4.127-20.248 19.1534-15.069 31.9452 1.703 4.208 7.921 8.776 7.708 13.285-.294 6.213-4.804 13.889-6.958 19.715-4.988 13.491-8.976 28.278-15.681 41z" fill="#fff"/><path d="m144 78.5617c-16.967 4.2501-11.023 30.8303 6 26.9013 17.625-4.068 11.274-31.228-6-26.9013m74-.0247c-17.625 4.0678-11.274 31.228 6 26.901 16.967-4.25 11.023-30.8299-6-26.901m-157.9992 28.116c-16.6964 5.255-8.1426 31.095 8.9984 25.694 16.6687-5.252 7.8197-30.988-8.9984-25.694m239.0002 0c-17.252 5.43-6.998 32.131 9.998 25.605 15.897-6.104 6.187-30.7-9.998-25.605m-223.001 34.347c-10.1326 2.736-2.3498 17.751-.2901 25 5.9556 20.96 11.4888 42.037 17.4305 63l4.4352 16c.6318 2.252.9605 5.474 2.9884 6.972 2.753 2.034 8.214 1.028 11.436 1.028h29 86 26c3.981 0 9.007.809 12.856-.318 3.071-.899 3.538-3.974 4.294-6.683l4.71-16.999c6.22-21.947 12.43-43.945 18.256-66 1.855-7.022 8.665-19.359-1.116-22-8.926 13.232-17.478 26.717-26.333 40-2.057 3.085-5.938 11.723-10.548 11.079-4.689-.655-7.123-13.315-8.543-17.079-5.642-14.961-11.04-30.017-16.626-45-1.52-4.076-2.865-13.168-8.053-13.833-7.488-.959-9.345 10.594-11.321 15.833-5.412 14.349-10.848 28.7-16.387 43-1.652 4.266-3.15 12.398-8.244 13.677-8.525 2.142-10.721-9.866-12.895-15.677-5.249-14.033-10.766-27.962-16-42-1.563-4.193-3.222-13.341-8.179-14.677-8.173-2.205-10.258 12.278-12.295 17.677-5.516 14.628-10.835 29.336-16.257 44-1.251 3.381-3.141 13.478-7.438 14.079-4.97.694-9.643-9.723-11.881-13.079l-10-15c-5.0765-7.618-9.8787-15.408-15-23m25 122v4c-11.2287 2.272-11.2287 15.728 0 18v4h166v-4c11.229-2.272 11.229-15.728 0-18v-4z"/><path d="m181.015 267.746c-10.629 4.039-4.549 20.505 5.97 16.508 10.629-4.039 4.549-20.505-5.97-16.508z" fill="#fff"/><path d="m83 331h202c0-6.998.094-14.003-.004-21-.048-3.442-.255-7.104-3.224-9.397-3.317-2.56-8.852-1.603-12.772-1.603h-32-108-29c-3.8849 0-9.3769-.95-12.8912 1.028-3.6954 2.08-4.052 6.175-4.1049 9.972-.0977 6.997-.0039 14.002-.0039 21z"/></svg>

<?xml version="1.0" standalone="yes"?>
<svg xmlns="http://www.w3.org/2000/svg" width="368" height="368">
<path style="fill:#ffffff; stroke:none;" d="M110 175C105.489 165.464 98.514 156.772 92.6667 148C90.2295 144.344 86.6438 140.288 85.4375 136C84.372 132.212 87.0305 128.657 87.6713 125C89.0547 117.105 87.5245 108.934 81.8951 103.043C67.0951 87.5565 38.8255 99.0929 40.213 121C40.625 127.506 44.0107 134.169 49.0934 138.236C52.8086 141.209 57.7868 142.356 59.7508 147.044C62.2467 153.001 63.3802 159.79 65.1404 166C69.0057 179.637 72.6283 193.344 76.4244 207C79.2024 216.994 81.8778 227.022 84.7099 237C86.4313 243.065 89.1428 249.722 89.8372 255.985C90.3893 260.965 84.7871 264.502 83.1335 269C80.8143 275.309 84.8483 281.222 83.3634 286.961C82.0018 292.223 75.5155 295.314 73.8002 301C72.3756 305.723 73 311.126 73 316L73 341L295 341L295 316C295 311.126 295.624 305.723 294.2 301C292.484 295.314 285.998 292.223 284.637 286.961C283.152 281.222 287.186 275.309 284.867 269C283.213 264.502 277.611 260.965 278.163 255.985C278.857 249.722 281.569 243.065 283.29 237C286.122 227.022 288.798 216.994 291.576 207C295.372 193.344 298.994 179.637 302.86 166C304.62 159.79 305.753 153.001 308.249 147.044C310.214 142.355 315.192 141.213 318.907 138.236C323.859 134.267 327.377 127.352 327.787 121C329.202 99.0835 300.892 87.5699 286.105 103.043C280.476 108.934 278.945 117.105 280.329 125C280.969 128.657 283.628 132.213 282.562 136C281.356 140.288 277.77 144.344 275.333 148C269.486 156.772 262.511 165.464 258 175C251.295 162.278 247.307 147.491 242.319 134C240.146 128.125 235.65 120.441 235.361 114.17C235.155 109.692 241.372 105.194 243.069 101C248.248 88.2082 241.264 73.1818 228 69.0548C218.769 66.1825 207.659 69.2066 201.789 77.0401C194.438 86.8514 194.877 105.075 207 111C205.008 119.608 201.138 127.745 198.05 136C193.56 148.004 189.432 160.388 184 172C178.568 160.388 174.44 148.004 169.95 136C166.862 127.745 162.992 119.608 161 111C173.123 105.075 173.562 86.8514 166.211 77.0401C160.341 69.2066 149.231 66.1825 140 69.0548C126.736 73.1818 119.752 88.2082 124.931 101C126.634 105.208 132.852 109.776 132.639 114.285C132.345 120.498 127.835 128.174 125.681 134C120.693 147.491 116.705 162.278 110 175z"/>
<path style="fill:#000000; stroke:none;" d="M144 78.5617C127.033 82.8118 132.977 109.392 150 105.463C167.625 101.395 161.274 74.235 144 78.5617M218 78.537C200.375 82.6048 206.726 109.765 224 105.438C240.967 101.188 235.023 74.6081 218 78.537M60.0008 106.653C43.3044 111.908 51.8582 137.748 68.9992 132.347C85.6679 127.095 76.8189 101.359 60.0008 106.653M299.001 106.653C281.749 112.083 292.003 138.784 308.999 132.258C324.896 126.154 315.186 101.558 299.001 106.653M76 141C65.8674 143.736 73.6502 158.751 75.7099 166C81.6655 186.96 87.1987 208.037 93.1404 229L97.5756 245C98.2074 247.252 98.5361 250.474 100.564 251.972C103.317 254.006 108.778 253 112 253L141 253L227 253L253 253C256.981 253 262.007 253.809 265.856 252.682C268.927 251.783 269.394 248.708 270.15 245.999L274.86 229C281.08 207.053 287.29 185.055 293.116 163C294.971 155.978 301.781 143.641 292 141C283.074 154.232 274.522 167.717 265.667 181C263.61 184.085 259.729 192.723 255.119 192.079C250.43 191.424 247.996 178.764 246.576 175C240.934 160.039 235.536 144.983 229.95 130C228.43 125.924 227.085 116.832 221.897 116.167C214.409 115.208 212.552 126.761 210.576 132C205.164 146.349 199.728 160.7 194.189 175C192.537 179.266 191.039 187.398 185.945 188.677C177.42 190.819 175.224 178.811 173.05 173C167.801 158.967 162.284 145.038 157.05 131C155.487 126.807 153.828 117.659 148.871 116.323C140.698 114.118 138.613 128.601 136.576 134C131.06 148.628 125.741 163.336 120.319 178C119.068 181.381 117.178 191.478 112.881 192.079C107.911 192.773 103.238 182.356 101 179L91 164C85.9235 156.382 81.1213 148.592 76 141M101 263L101 267C89.7713 269.272 89.7713 282.728 101 285L101 289L267 289L267 285C278.229 282.728 278.229 269.272 267 267L267 263L101 263z"/>
<path style="fill:#ffffff; stroke:none;" d="M181.015 267.746C170.386 271.785 176.466 288.251 186.985 284.254C197.614 280.215 191.534 263.749 181.015 267.746z"/>
<path style="fill:#000000; stroke:none;" d="M83 331L285 331C285 324.002 285.094 316.997 284.996 310C284.948 306.558 284.741 302.896 281.772 300.603C278.455 298.043 272.92 299 269 299L237 299L129 299L100 299C96.1151 299 90.6231 298.05 87.1088 300.028C83.4134 302.108 83.0568 306.203 83.0039 310C82.9062 316.997 83 324.002 83 331z"/>
</svg>
